files/coca-cola-company.svg

<svg clip-rule="evenodd" fill-rule="evenodd" stroke-linejoin="round" stroke-miterlimit="2" viewBox="0 0 560 400" xmlns="http://www.w3.org/2000/svg"><g fill="#120f0d" fill-rule="nonzero" transform="matrix(.720721 0 0 .720721 40 161.398)"><path d="m347.89 8.24s-6.4 2.55-13.84 10.75c-7.47 8.23-11.78 17.43-8.57 19.87 1.23.93 4.07 1.09 9.23-3.55 4.03-3.61 8.13-8.35 10.91-15.13 3.33-8.12 2.27-11.85 2.27-11.94m40.73 14.76c-8.27-4.24-14.31-9.42-20.6-12.65-6-3.08-9.88-4.37-14.73-3.72-.8.11-2 .5-2 .5s2.5 8.53-7.44 22.87c-10.07 14.52-19.2 14.44-21.8 10.43-2.72-4.21.79-12.8 6.65-20.44 6.14-7.99 16.93-14.62 16.93-14.62s-3.44-2.1-11.89 2.69c-8.23 4.65-22.44 15.75-35.58 34.47-13.13 18.72-15.77 29.02-17.66 37.13-1.9 8.11-.17 16.79 8.82 16.79 9 .01 19.46-13.71 22.41-18.48 5.49-8.88 9.07-22.5 1.6-20.63-3.68.92-6.66 5-8.54 8.92-1.93 4.03-2.71 7.88-2.71 7.88s-3.11 1.11-7.29 4.24c-4.18 3.12-6.91 6.11-6.91 6.11s.03-6.48 5.2-16.97 14.65-15.28 20.02-15.73c4.84-.39 11.14 3.72 5.8 18.89-5.33 15.17-21.08 33.57-37.63 33.8-15.27.21-25.26-19.28-4.01-53.27 23.51-37.6 51.11-49.13 60.07-50.41s11.87 2.67 11.87 2.67 7.51-3.46 17.03-2.81c10.94.74 19.4 8.48 30.56 13.92-2.9 2.79-5.67 5.69-8.17 8.42m49.14-12.65c-7.58 4.86-18.07 9.27-28.15 8.3-2.55 2.64-5.28 5.69-8.02 9.02 17.48 3.46 32.79-7.37 40.93-16.59 5.09-5.75 7.6-10.89 7.6-10.89s-4.86 5.34-12.36 10.16m-23.27 49.24c.22-.39.32-.73.32-.73s-.2-1.47-1.6-1.53c-1.66-.08-3.94.24-9.89 6.83-5.93 6.56-9.53 12.26-12.66 17.96-3.41 6.23-4.79 10.87-2.83 12.07.55.34 1.38.38 2.06.21 1.33-.32 2.83-1.56 5.12-4.21 1.07-1.24 2.26-3 3.68-4.95 3.94-5.36 13.84-22.24 15.8-25.65m-61.86 7.17c.99-2.6 2.26-7.7-.37-9.7-2.83-2.13-10.03 2.86-10.07 7.98-.05 5.24 5.07 7.61 6.3 7.94.7.19.94.16 1.28-.4.21-.37 1.86-3.21 2.86-5.82m-5.45 9.53c-.19-.06-2.52-1.13-4.95-3.16-2.42-2.02-3.64-4.33-3.73-4.51-.1-.17-.2-.04-.31.11s-.54.53-4.4 6.18c-3.85 5.65-9.74 17.29-4.4 19.28 3.42 1.27 9.11-4.72 12.23-8.69 2.88-3.69 5.58-8.38 5.73-8.72.16-.34.02-.42-.17-.49m60.56 13.47c-1.45 2.32-3.1 6.77 1.69 4 5.83-3.37 14.14-15.97 14.14-15.97h3.76s-4.96 7.83-11.42 14.98c-5.91 6.55-13.12 12.5-18.2 11.91-5.93-.69-4.07-8.48-4.07-8.48s-8.52 9.04-14.37 8.39c-7.93-.88-5.51-10.68-5.51-10.68s-8.97 11.03-15.08 10.67c-9.58-.55-7.17-12.24-4.51-20.42 1.43-4.39 2.75-7.84 2.75-7.84s-.95.25-2.99.55c-1.07.15-3.01.26-3.01.26s-3.99 7.04-7.18 11.27c-3.19 4.24-16.76 18.81-24.74 15.89-7.38-2.7-4.94-14-.64-22.98 6.27-13.09 23.91-31.9 34.08-29.43 10.55 2.56.24 21.8.24 21.8s0 .07.11.12c.21.08.76.14 2.03-.11 2.03-.39 3.86-1.15 3.86-1.15s10.6-22.2 22.31-36.72 35.07-39.52 44.24-33.47c2.24 1.49 1.22 6.61-1.8 12.83-1.34.42-2.72.79-4.14 1.08 2.02-3.67 3.36-6.76 3.76-8.92 1.38-7.5-16.14 8.31-28.66 25.33s-20.04 32.43-20.04 32.43 2.52-1.43 6.46-4.6c4.11-3.31 9.77-8.5 15.9-14.84 4.13-4.27 8.99-9.63 13.53-15.62 1.36-.07 2.69-.2 3.98-.41-5.07 6.82-10.4 13.05-14.93 17.64-4.98 5.05-10.4 10.48-15.1 14.44-7.48 6.28-13.24 9.84-13.24 9.84s-10.95 22.08-4.99 23.5c3.5.84 10.42-9.81 10.42-9.81s9.02-13.77 14.46-19.96c7.42-8.44 13.81-13.31 20.19-13.41 3.72-.07 5.91 3.9 5.91 3.9l1.75-2.71 10.77.01s-20.11 34.12-21.72 36.69m30.02-79.41c-7.58 4.86-18.07 9.27-28.15 8.3-2.55 2.64-5.28 5.69-8.02 9.02 17.48 3.46 32.79-7.37 40.93-16.59 5.09-5.75 7.6-10.89 7.6-10.89s-4.86 5.34-12.36 10.16m-151.21 16.74-10.24-.01-5.79 9.36 10.24.01zm-48.49 32.38c4.36-5.97 16.38-26.9 16.38-26.9s-.2-1.47-1.6-1.53c-1.66-.08-4.42.48-9.95 7.38-5.53 6.89-9.79 12.39-12.91 18.1-3.42 6.23-4.91 10.63-2.95 11.82.55.33 1.38.38 2.06.21 1.28-.32 2.95-1.6 5.24-4.24 1.08-1.23 2.3-2.89 3.73-4.84m-54.95-28.3c-2.83-2.14-10.03 2.86-10.07 7.97-.04 5.24 6.5 6.74 7.35 6.78 0 0 .74.2 1.03-.42.18-.39 1.07-2.03 2.07-4.63.99-2.6 2.25-7.7-.38-9.7m-4.27 18.05c-.19-.07-2.9-.85-5.55-2.55-2.65-1.69-3.87-4.21-3.96-4.39-.1-.17-.21-.04-.31.11-.11.15-.68.87-4.53 6.52-3.85 5.64-9.56 17.21-4.21 19.19 3.42 1.27 9.17-4.74 12.28-8.71 2.88-3.69 6.32-9.36 6.47-9.69.13-.34-.01-.42-.19-.48m83.67 3.48h3.75s-18.8 27.17-29.43 25.93c-5.93-.69-4.17-8.01-4.17-8.01s-8.35 9.75-15.97 7.8c-6.94-1.78-2.46-13.31-2.46-13.31-.79.32-15.8 17.24-26.35 13.18-11.04-4.26-5.31-18.43-3.21-22.69 1.78-3.59 3.75-7.09 3.75-7.09s-1.69.48-2.75.72c-1.05.24-2.65.55-2.65.55s-5.22 8.49-8.41 12.72c-3.19 4.24-16.76 18.79-24.75 15.89-7.99-2.91-6.01-14.08-1.52-22.96 7.28-14.4 24.56-32.1 34.96-29.44 10.51 2.68 1.81 19.73 1.81 19.73s2.09.27 7.1-3.15c7.23-4.92 16.74-18.16 27.05-16.61 4.84.73 9.35 5.7 3.18 15.13-1.98 3.03-5.29 5.74-7.83 3.06-1.58-1.65-.2-4.7 1.46-6.78 2.34-2.95 5.57-2.54 5.57-2.54s1.7-3.91-2.63-3.83c-3.51.07-12.39 8.24-17.4 16.5-4.6 7.58-11.56 20.5-4.57 23.32 6.41 2.59 18.61-11.89 24.26-19.48 5.65-7.58 18.51-24.79 29.31-25.48 3.72-.24 5.93 3.15 5.93 3.15l1.25-1.98 10.78.01s-20.34 33.94-21.93 36.51c-1.25 2.01-2.91 6.53 1.69 4 4.62-2.54 14.18-14.85 14.18-14.85m-5.88 54.4c-8.16-5.75-18.11-8.28-27.14-7.92-9.14.36-13.24 7.18-13.24 7.18-4.12-7.19-12.26-11.6-24.85-11.5-20.34.23-40.53 9.61-56.5 9.6-15.34-.01-26.51-9.64-26.14-26.75.66-30 26.02-57.02 44.97-69.18 10.89-6.99 20.01-9.06 25.98-8.39 4.35.48 9.58 5.51 6.28 12.92-4.85 10.85-11.55 9.94-11.3 4.76.14-3.37 2.38-5.49 4.07-6.65 1.07-.74 2.96-.95 3.95-.97.96-.81 1.69-6.74-6.11-4.79-7.81 1.95-17.2 9.61-26.16 19.49-8.96 9.87-22.9 28.6-26.35 48.24-1.61 9.11-.54 25.72 21.04 25.54 18.29-.15 45.31-12.19 70.12-11.96 9.63.09 18.01 2.69 24.54 6.72 6.42 3.95 14.11 9.72 16.84 13.66"/><path d="m60.38 68.2 21.65.01-.71-4.92-15.29-.01v-5.96h10.3v-4.95l-10.3-.01v-5.1l14.93.01.72-4.92-21.29-.01zm-31.99-.02h5.63l.01-11.45 13.21.01-.01 11.45h5.64l.02-25.85h-5.64v9.37l-13.21-.01v-9.37h-5.63zm-28.39-20.8 8.62.01-.01 20.78h5.64l.01-20.79h8.62v-5.06h-22.88z"/><path d="m666 42.4h-6.21l-6.76 12.09-6.85-12.1h-6.35l10.33 17.28-.01 8.58h5.64v-8.69zm-36.12-.02-.01 17.52-12.37-17.53h-5.84l-.01 25.85h5.49l.01-17.81 12.55 17.81h5.67l.01-25.85zm-40.75 15.2 3.85-10.23 3.84 10.24zm11.66 10.63h5.93l-10.25-25.85h-6.93l-10.29 25.84h5.89l2.15-5.74 11.35.01zm-30.83-14.45h-7.5v-6.43h7.5c1.12 0 2 .28 2.62.83s.93 1.34.93 2.37-.31 1.83-.94 2.38c-.61.57-1.49.85-2.61.85m.15-11.41-13.29-.01-.01 25.85h5.64l.01-9.44h7.65c1.96 0 3.63-.36 4.99-1.07 1.36-.72 2.39-1.7 3.08-2.94.7-1.24 1.04-2.64 1.04-4.2s-.34-2.96-1.04-4.21c-.69-1.24-1.72-2.22-3.08-2.92-1.36-.71-3.03-1.06-4.99-1.06m-20.79-.02h-7.57l-7.59 17.95-7.74-17.96h-7.57l-.01 25.85h5.46l.01-18.49 7.85 18.13h3.77l7.94-18.6-.01 18.96h5.46zm-50.42 21.19c-1.53 0-2.9-.35-4.11-1.06s-2.16-1.69-2.84-2.95-1.02-2.68-1.02-4.29.34-3.04 1.03-4.29c.68-1.26 1.63-2.24 2.84-2.94 1.2-.7 2.57-1.06 4.11-1.06s2.9.36 4.11 1.06c1.21.71 2.16 1.68 2.83 2.95.68 1.25 1.02 2.69 1.02 4.29s-.34 3.03-1.02 4.29-1.63 2.24-2.84 2.94c-1.2.72-2.57 1.06-4.11 1.06m0 5.1c2.66 0 5.04-.57 7.13-1.7 2.1-1.14 3.73-2.72 4.92-4.76 1.18-2.03 1.78-4.34 1.78-6.92 0-2.59-.59-4.89-1.77-6.93-1.18-2.03-2.82-3.62-4.92-4.76-2.09-1.14-4.47-1.71-7.13-1.71s-5.03.57-7.13 1.7c-2.1 1.14-3.74 2.73-4.92 4.76-1.19 2.04-1.78 4.34-1.78 6.93 0 2.58.59 4.89 1.78 6.93 1.18 2.04 2.82 3.62 4.91 4.76 2.11 1.13 4.47 1.7 7.13 1.7m-27.14-.01c2.11 0 4.07-.34 5.91-1.02 1.83-.68 3.33-1.7 4.51-3.07l-3.52-3.84c-1.87 1.89-4.12 2.83-6.78 2.83-1.68 0-3.19-.36-4.54-1.1-1.36-.73-2.4-1.72-3.16-2.98-.75-1.26-1.13-2.67-1.13-4.22 0-1.56.38-2.96 1.15-4.22.76-1.26 1.81-2.25 3.14-2.98s2.82-1.1 4.47-1.1c1.27 0 2.45.24 3.54.7 1.09.47 2.14 1.21 3.14 2.22l3.52-3.91c-1.15-1.34-2.62-2.36-4.43-3.05-1.81-.7-3.78-1.05-5.91-1.05-2.75 0-5.23.58-7.43 1.74s-3.93 2.76-5.17 4.81c-1.25 2.05-1.87 4.33-1.87 6.84s.62 4.79 1.86 6.84c1.24 2.04 2.97 3.65 5.18 4.81 2.21 1.17 4.72 1.75 7.52 1.75"/></g></svg>

<?xml version="1.0" encoding="UTF-8" standalone="no"?>
<!DOCTYPE svg PUBLIC "-//W3C//DTD SVG 1.1//EN" "http://www.w3.org/Graphics/SVG/1.1/DTD/svg11.dtd">
<svg width="100%" height="100%" viewBox="0 0 560 400" version="1.1" xmlns="http://www.w3.org/2000/svg" xmlns:xlink="http://www.w3.org/1999/xlink" xml:space="preserve" xmlns:serif="http://www.serif.com/" style="fill-rule:evenodd;clip-rule:evenodd;stroke-linejoin:round;stroke-miterlimit:2;">
    <g transform="matrix(0.720721,0,0,0.720721,40,161.398)">
        <path d="M347.89,8.24C347.89,8.24 341.49,10.79 334.05,18.99C326.58,27.22 322.27,36.42 325.48,38.86C326.71,39.79 329.55,39.95 334.71,35.31C338.74,31.7 342.84,26.96 345.62,20.18C348.95,12.06 347.89,8.33 347.89,8.24M388.62,23C380.35,18.76 374.31,13.58 368.02,10.35C362.02,7.27 358.14,5.98 353.29,6.63C352.49,6.74 351.29,7.13 351.29,7.13C351.29,7.13 353.79,15.66 343.85,30C333.78,44.52 324.65,44.44 322.05,40.43C319.33,36.22 322.84,27.63 328.7,19.99C334.84,12 345.63,5.37 345.63,5.37C345.63,5.37 342.19,3.27 333.74,8.06C325.51,12.71 311.3,23.81 298.16,42.53C285.03,61.25 282.39,71.55 280.5,79.66C278.6,87.77 280.33,96.45 289.32,96.45C298.32,96.46 308.78,82.74 311.73,77.97C317.22,69.09 320.8,55.47 313.33,57.34C309.65,58.26 306.67,62.34 304.79,66.26C302.86,70.29 302.08,74.14 302.08,74.14C302.08,74.14 298.97,75.25 294.79,78.38C290.61,81.5 287.88,84.49 287.88,84.49C287.88,84.49 287.91,78.01 293.08,67.52C298.25,57.03 307.73,52.24 313.1,51.79C317.94,51.4 324.24,55.51 318.9,70.68C313.57,85.85 297.82,104.25 281.27,104.48C266,104.69 256.01,85.2 277.26,51.21C300.77,13.61 328.37,2.08 337.33,0.8C346.29,-0.48 349.2,3.47 349.2,3.47C349.2,3.47 356.71,0.01 366.23,0.66C377.17,1.4 385.63,9.14 396.79,14.58C393.89,17.37 391.12,20.27 388.62,23M437.76,10.35C430.18,15.21 419.69,19.62 409.61,18.65C407.06,21.29 404.33,24.34 401.59,27.67C419.07,31.13 434.38,20.3 442.52,11.08C447.61,5.33 450.12,0.19 450.12,0.19C450.12,0.19 445.26,5.53 437.76,10.35M414.49,59.59C414.71,59.2 414.81,58.86 414.81,58.86C414.81,58.86 414.61,57.39 413.21,57.33C411.55,57.25 409.27,57.57 403.32,64.16C397.39,70.72 393.79,76.42 390.66,82.12C387.25,88.35 385.87,92.99 387.83,94.19C388.38,94.53 389.21,94.57 389.89,94.4C391.22,94.08 392.72,92.84 395.01,90.19C396.08,88.95 397.27,87.19 398.69,85.24C402.63,79.88 412.53,63 414.49,59.59M352.63,66.76C353.62,64.16 354.89,59.06 352.26,57.06C349.43,54.93 342.23,59.92 342.19,65.04C342.14,70.28 347.26,72.65 348.49,72.98C349.19,73.17 349.43,73.14 349.77,72.58C349.98,72.21 351.63,69.37 352.63,66.76M347.18,76.29C346.99,76.23 344.66,75.16 342.23,73.13C339.81,71.11 338.59,68.8 338.5,68.62C338.4,68.45 338.3,68.58 338.19,68.73C338.08,68.88 337.65,69.26 333.79,74.91C329.94,80.56 324.05,92.2 329.39,94.19C332.81,95.46 338.5,89.47 341.62,85.5C344.5,81.81 347.2,77.12 347.35,76.78C347.51,76.44 347.37,76.36 347.18,76.29M407.74,89.76C406.29,92.08 404.64,96.53 409.43,93.76C415.26,90.39 423.57,77.79 423.57,77.79L427.33,77.79C427.33,77.79 422.37,85.62 415.91,92.77C410,99.32 402.79,105.27 397.71,104.68C391.78,103.99 393.64,96.2 393.64,96.2C393.64,96.2 385.12,105.24 379.27,104.59C371.34,103.71 373.76,93.91 373.76,93.91C373.76,93.91 364.79,104.94 358.68,104.58C349.1,104.03 351.51,92.34 354.17,84.16C355.6,79.77 356.92,76.32 356.92,76.32C356.92,76.32 355.97,76.57 353.93,76.87C352.86,77.02 350.92,77.13 350.92,77.13C350.92,77.13 346.93,84.17 343.74,88.4C340.55,92.64 326.98,107.21 319,104.29C311.62,101.59 314.06,90.29 318.36,81.31C324.63,68.22 342.27,49.41 352.44,51.88C362.99,54.44 352.68,73.68 352.68,73.68C352.68,73.68 352.68,73.75 352.79,73.8C353,73.88 353.55,73.94 354.82,73.69C356.85,73.3 358.68,72.54 358.68,72.54C358.68,72.54 369.28,50.34 380.99,35.82C392.7,21.3 416.06,-3.7 425.23,2.35C427.47,3.84 426.45,8.96 423.43,15.18C422.09,15.6 420.71,15.97 419.29,16.26C421.31,12.59 422.65,9.5 423.05,7.34C424.43,-0.16 406.91,15.65 394.39,32.67C381.87,49.69 374.35,65.1 374.35,65.1C374.35,65.1 376.87,63.67 380.81,60.5C384.92,57.19 390.58,52 396.71,45.66C400.84,41.39 405.7,36.03 410.24,30.04C411.6,29.97 412.93,29.84 414.22,29.63C409.15,36.45 403.82,42.68 399.29,47.27C394.31,52.32 388.89,57.75 384.19,61.71C376.71,67.99 370.95,71.55 370.95,71.55C370.95,71.55 360,93.63 365.96,95.05C369.46,95.89 376.38,85.24 376.38,85.24C376.38,85.24 385.4,71.47 390.84,65.28C398.26,56.84 404.65,51.97 411.03,51.87C414.75,51.8 416.94,55.77 416.94,55.77L418.69,53.06L429.46,53.07C429.46,53.07 409.35,87.19 407.74,89.76M437.76,10.35C430.18,15.21 419.69,19.62 409.61,18.65C407.06,21.29 404.33,24.34 401.59,27.67C419.07,31.13 434.38,20.3 442.52,11.08C447.61,5.33 450.12,0.19 450.12,0.19C450.12,0.19 445.26,5.53 437.76,10.35M286.55,27.09L276.31,27.08L270.52,36.44L280.76,36.45L286.55,27.09ZM238.06,59.47C242.42,53.5 254.44,32.57 254.44,32.57C254.44,32.57 254.24,31.1 252.84,31.04C251.18,30.96 248.42,31.52 242.89,38.42C237.36,45.31 233.1,50.81 229.98,56.52C226.56,62.75 225.07,67.15 227.03,68.34C227.58,68.67 228.41,68.72 229.09,68.55C230.37,68.23 232.04,66.95 234.33,64.31C235.41,63.08 236.63,61.42 238.06,59.47M183.11,31.17C180.28,29.03 173.08,34.03 173.04,39.14C173,44.38 179.54,45.88 180.39,45.92C180.39,45.92 181.13,46.12 181.42,45.5C181.6,45.11 182.49,43.47 183.49,40.87C184.48,38.27 185.74,33.17 183.11,31.17M178.84,49.22C178.65,49.15 175.94,48.37 173.29,46.67C170.64,44.98 169.42,42.46 169.33,42.28C169.23,42.11 169.12,42.24 169.02,42.39C168.91,42.54 168.34,43.26 164.49,48.91C160.64,54.55 154.93,66.12 160.28,68.1C163.7,69.37 169.45,63.36 172.56,59.39C175.44,55.7 178.88,50.03 179.03,49.7C179.16,49.36 179.02,49.28 178.84,49.22M262.51,52.7L266.26,52.7C266.26,52.7 247.46,79.87 236.83,78.63C230.9,77.94 232.66,70.62 232.66,70.62C232.66,70.62 224.31,80.37 216.69,78.42C209.75,76.64 214.23,65.11 214.23,65.11C213.44,65.43 198.43,82.35 187.88,78.29C176.84,74.03 182.57,59.86 184.67,55.6C186.45,52.01 188.42,48.51 188.42,48.51C188.42,48.51 186.73,48.99 185.67,49.23C184.62,49.47 183.02,49.78 183.02,49.78C183.02,49.78 177.8,58.27 174.61,62.5C171.42,66.74 157.85,81.29 149.86,78.39C141.87,75.48 143.85,64.31 148.34,55.43C155.62,41.03 172.9,23.33 183.3,25.99C193.81,28.67 185.11,45.72 185.11,45.72C185.11,45.72 187.2,45.99 192.21,42.57C199.44,37.65 208.95,24.41 219.26,25.96C224.1,26.69 228.61,31.66 222.44,41.09C220.46,44.12 217.15,46.83 214.61,44.15C213.03,42.5 214.41,39.45 216.07,37.37C218.41,34.42 221.64,34.83 221.64,34.83C221.64,34.83 223.34,30.92 219.01,31C215.5,31.07 206.62,39.24 201.61,47.5C197.01,55.08 190.05,68 197.04,70.82C203.45,73.41 215.65,58.93 221.3,51.34C226.95,43.76 239.81,26.55 250.61,25.86C254.33,25.62 256.54,29.01 256.54,29.01L257.79,27.03L268.57,27.04C268.57,27.04 248.23,60.98 246.64,63.55C245.39,65.56 243.73,70.08 248.33,67.55C252.95,65.01 262.51,52.7 262.51,52.7M256.63,107.1C248.47,101.35 238.52,98.82 229.49,99.18C220.35,99.54 216.25,106.36 216.25,106.36C212.13,99.17 203.99,94.76 191.4,94.86C171.06,95.09 150.87,104.47 134.9,104.46C119.56,104.45 108.39,94.82 108.76,77.71C109.42,47.71 134.78,20.69 153.73,8.53C164.62,1.54 173.74,-0.53 179.71,0.14C184.06,0.62 189.29,5.65 185.99,13.06C181.14,23.91 174.44,23 174.69,17.82C174.83,14.45 177.07,12.33 178.76,11.17C179.83,10.43 181.72,10.22 182.71,10.2C183.67,9.39 184.4,3.46 176.6,5.41C168.79,7.36 159.4,15.02 150.44,24.9C141.48,34.77 127.54,53.5 124.09,73.14C122.48,82.25 123.55,98.86 145.13,98.68C163.42,98.53 190.44,86.49 215.25,86.72C224.88,86.81 233.26,89.41 239.79,93.44C246.21,97.39 253.9,103.16 256.63,107.1" style="fill:rgb(18,15,13);fill-rule:nonzero;"/>
        <path d="M60.38,68.2L82.03,68.21L81.32,63.29L66.03,63.28L66.03,57.32L76.33,57.32L76.33,52.37L66.03,52.36L66.03,47.26L80.96,47.27L81.68,42.35L60.39,42.34L60.38,68.2ZM28.39,68.18L34.02,68.18L34.03,56.73L47.24,56.74L47.23,68.19L52.87,68.19L52.89,42.34L47.25,42.34L47.25,51.71L34.04,51.7L34.04,42.33L28.41,42.33L28.39,68.18ZM0,47.38L8.62,47.39L8.61,68.17L14.25,68.17L14.26,47.38L22.88,47.38L22.88,42.32L0,42.32L0,47.38Z" style="fill:rgb(18,15,13);fill-rule:nonzero;"/>
        <path d="M666,42.4L659.79,42.4L653.03,54.49L646.18,42.39L639.83,42.39L650.16,59.67L650.15,68.25L655.79,68.25L655.79,59.56L666,42.4ZM629.88,42.38L629.87,59.9L617.5,42.37L611.66,42.37L611.65,68.22L617.14,68.22L617.15,50.41L629.7,68.22L635.37,68.22L635.38,42.37L629.88,42.38ZM589.13,57.58L592.98,47.35L596.82,57.59L589.13,57.58ZM600.79,68.21L606.72,68.21L596.47,42.36L589.54,42.36L579.25,68.2L585.14,68.2L587.29,62.46L598.64,62.47L600.79,68.21ZM569.96,53.76L562.46,53.76L562.46,47.33L569.96,47.33C571.08,47.33 571.96,47.61 572.58,48.16C573.2,48.71 573.51,49.5 573.51,50.53C573.51,51.56 573.2,52.36 572.57,52.91C571.96,53.48 571.08,53.76 569.96,53.76M570.11,42.35L556.82,42.34L556.81,68.19L562.45,68.19L562.46,58.75L570.11,58.75C572.07,58.75 573.74,58.39 575.1,57.68C576.46,56.96 577.49,55.98 578.18,54.74C578.88,53.5 579.22,52.1 579.22,50.54C579.22,48.98 578.88,47.58 578.18,46.33C577.49,45.09 576.46,44.11 575.1,43.41C573.74,42.7 572.07,42.35 570.11,42.35M549.32,42.33L541.75,42.33L534.16,60.28L526.42,42.32L518.85,42.32L518.84,68.17L524.3,68.17L524.31,49.68L532.16,67.81L535.93,67.81L543.87,49.21L543.86,68.17L549.32,68.17L549.32,42.33ZM498.9,63.52C497.37,63.52 496,63.17 494.79,62.46C493.58,61.75 492.63,60.77 491.95,59.51C491.27,58.25 490.93,56.83 490.93,55.22C490.93,53.61 491.27,52.18 491.96,50.93C492.64,49.67 493.59,48.69 494.8,47.99C496,47.29 497.37,46.93 498.91,46.93C500.45,46.93 501.81,47.29 503.02,47.99C504.23,48.7 505.18,49.67 505.85,50.94C506.53,52.19 506.87,53.63 506.87,55.23C506.87,56.83 506.53,58.26 505.85,59.52C505.17,60.78 504.22,61.76 503.01,62.46C501.81,63.18 500.44,63.52 498.9,63.52M498.9,68.62C501.56,68.62 503.94,68.05 506.03,66.92C508.13,65.78 509.76,64.2 510.95,62.16C512.13,60.13 512.73,57.82 512.73,55.24C512.73,52.65 512.14,50.35 510.96,48.31C509.78,46.28 508.14,44.69 506.04,43.55C503.95,42.41 501.57,41.84 498.91,41.84C496.25,41.84 493.88,42.41 491.78,43.54C489.68,44.68 488.04,46.27 486.86,48.3C485.67,50.34 485.08,52.64 485.08,55.23C485.08,57.81 485.67,60.12 486.86,62.16C488.04,64.2 489.68,65.78 491.77,66.92C493.88,68.05 496.24,68.62 498.9,68.62M471.76,68.61C473.87,68.61 475.83,68.27 477.67,67.59C479.5,66.91 481,65.89 482.18,64.52L478.66,60.68C476.79,62.57 474.54,63.51 471.88,63.51C470.2,63.51 468.69,63.15 467.34,62.41C465.98,61.68 464.94,60.69 464.18,59.43C463.43,58.17 463.05,56.76 463.05,55.21C463.05,53.65 463.43,52.25 464.2,50.99C464.96,49.73 466.01,48.74 467.34,48.01C468.67,47.28 470.16,46.91 471.81,46.91C473.08,46.91 474.26,47.15 475.35,47.61C476.44,48.08 477.49,48.82 478.49,49.83L482.01,45.92C480.86,44.58 479.39,43.56 477.58,42.87C475.77,42.17 473.8,41.82 471.67,41.82C468.92,41.82 466.44,42.4 464.24,43.56C462.04,44.72 460.31,46.32 459.07,48.37C457.82,50.42 457.2,52.7 457.2,55.21C457.2,57.72 457.82,60 459.06,62.05C460.3,64.09 462.03,65.7 464.24,66.86C466.45,68.03 468.96,68.61 471.76,68.61" style="fill:rgb(18,15,13);fill-rule:nonzero;"/>
    </g>
</svg>
